packages/crayons-core/src/components/icon/icon-assets/icons/close.svg

<?xml version="1.0" encoding="UTF-8"?>
<svg width="17px" height="16px" viewBox="0 0 17 16" version="1.1" xmlns="http://www.w3.org/2000/svg" xmlns:xlink="http://www.w3.org/1999/xlink">
    <!-- Generator: Sketch 52.6 (67491) - http://www.bohemiancoding.com/sketch -->
    <title>icon/close</title>
    <desc>Created with Sketch.</desc>
    <g id="Icons-✅" stroke="none" stroke-width="1" fill="none" fill-rule="evenodd">
        <g id="Icons" transform="translate(-408.000000, -2388.000000)" fill="currentColor">
            <g id="icon/close" transform="translate(409.000000, 2388.000000)">
                <g id="close" transform="translate(-1.000000, 0.000000)">
                    <path d="M9,16 C5.74457078,16.0236941 2.79946243,14.0723101 1.55219796,11.0651999 C0.304933496,8.0580896 1.00430375,4.59507883 3.32081581,2.3076889 C5.63732788,0.0202989741 9.10890896,-0.635206288 12.1,0.65 C12.4562237,0.80187831 12.6218783,1.21377634 12.47,1.57 C12.3181217,1.92622366 11.9062237,2.0918783 11.55,1.94 C10.745521,1.58860495 9.87786176,1.40486535 9,1.4 C5.35492065,1.4 2.4,4.35492065 2.4,8 C2.4,11.6450793 5.35492065,14.6 9,14.6 C12.6450793,14.6 15.6,11.6450793 15.6,8 C15.6032504,7.66494646 15.5764767,7.33027537 15.52,7 C15.4647715,6.6161621 15.7311621,6.26022848 16.115,6.20500001 C16.4988379,6.14977154 16.8547715,6.4161621 16.91,6.8 C16.9691361,7.19727977 16.999216,7.59834382 17,8 C17,12.418278 13.418278,16 9,16 Z M7.94,10.91 C7.75465043,10.9107911 7.5772544,10.8347643 7.45,10.7 L5.15,8.41 C4.87544444,8.13320224 4.87544444,7.68679776 5.15,7.41 C5.28025306,7.27303562 5.46098915,7.19549974 5.65,7.19549974 C5.83901085,7.19549974 6.01974694,7.27303562 6.15,7.41 L7.95,9.21 L14.21,3 C14.3886328,2.82136721 14.6489958,2.75160316 14.8930127,2.8169873 C15.1370296,2.88237144 15.3276286,3.07297036 15.3930127,3.3169873 C15.4583968,3.56100423 15.3886328,3.82136721 15.21,4 L8.44,10.7 C8.30832072,10.8343397 8.12811326,10.9100269 7.94,10.91 Z" id="Combined-Shape"></path>
                </g>
            </g>
        </g>
    </g>
</svg>

<svg viewBox="0 0 17 16"><path d="M9 16A8 8 0 1 1 12.1.65a.701.701 0 1 1-.55 1.29A6.46 6.46 0 0 0 9 1.4 6.6 6.6 0 1 0 15.6 8a5.61 5.61 0 0 0-.08-1 .702.702 0 1 1 1.39-.2A8 8 0 0 1 9 16zm-1.06-5.09a.67.67 0 0 1-.49-.21l-2.3-2.29a.71.71 0 0 1 0-1 .69.69 0 0 1 1 0l1.8 1.8L14.21 3a.707.707 0 0 1 1 1l-6.77 6.7a.7.7 0 0 1-.5.21z" fill="currentColor" fill-rule="evenodd"/></svg>
